X:284
M:C|
L:1/8
K:F
|:f/g/|a>gfc Ac cf/g/|agfc eg gf/g/|1 agfc d/e/f cA|B/c/d GB AFF:|2
a>fg>e fcfA|B/c/d GB AFF||

